X: 28
T: Tam Lin
C: Davey Arthur
Z: jsdansereau93
S: https://thesession.org/tunes/248#setting50618
R: reel
M: 4/4
L: 1/8
K: Dmin
|:"Dm"A,2DA, FA,DA,|"Bb"B,2DB, FB,DB,|"C"C2EC GCEC|"Bb"FEDC "Am"A,DDC|
"Dm"A,2DA, FA,DA,|"Bb"B,2DB, FB,DB,|"C"C2EC GCEC|"Bb" FEDC "Dm"A,DD2:|
|:"Dm"d^cdA FDFA|d^cdA FDFA|"C"cEEc EEdE|"Am"cEEc EEdE|
"Dm"d^cdA FDFA|d^cdA FDFA|"Bb"B,A,B,C DCDE|FA"C"GE"Dm"D3 A:|

